X: 1648
T: Keith Bramley's Schottische
B: australian traditional tunes wiki
M:4/4
L:1/8
R: Schottische
Q: 1/4=100
K:G
V:1 
d>d|"G"e2f>B G>B d>G|"D"F>GA4d>d|"D7"f2e>dc2A2|"G"d6d>d|
e2f>B G>B d>G|"D"F>GA4d>d|"D7"f2e>dc2A2|"G"G6F>G||
"D"A2D>FA2G>F|"G"G2B4F>G|"D"A2D>FA2G>A|"G"B6F>G|
"D"A2D>FA2G>F|"G"G2B4zB|"D"c2A3A B>c|1"D7"d4z2:|2"G"G6||
% abcbook-tune_id 6342d53a278e2bacb5957bc1


% abcbook-boost 0
% abcbook-tablature 
% abcbook-transpose 
% abcbook-lastupdated 1665324375959
% abcbook-soundfonts 
% abcbook-repeats 1
% NFF Book 2017

